svgs/cpu_z.svg

<svg width="192" height="192" viewBox="0 0 192 192" fill="none" xmlns="http://www.w3.org/2000/svg"><path d="M147.66 38.876H45.333a5.96 5.96 0 0 0-5.96 5.96v102.327a5.961 5.961 0 0 0 5.96 5.961H147.66a5.961 5.961 0 0 0 5.961-5.961V44.837a5.961 5.961 0 0 0-5.961-5.961Z" stroke="#000" stroke-width="8"/><path d="M105.935 79.608h-19.87a5.96 5.96 0 0 0-5.96 5.96v19.87a5.961 5.961 0 0 0 5.96 5.961h19.87a5.96 5.96 0 0 0 5.96-5.961v-19.87a5.96 5.96 0 0 0-5.96-5.96Z" stroke="#000" stroke-width="8"/><path d="M56.261 20v17.882m0 115.242V172m53.647-152v17.882m0 115.242V172M83.085 20v17.882m0 115.242V172m53.647-152v17.882m0 116.236V172M172 56.261h-17.882m-115.242 0H20m152 53.648h-17.882m-115.242 0H20m152-26.824h-17.882m-115.242 0H20m152 53.647h-17.882m-116.236 0H20m64.078 15.399v-17.883m0-95.372v17.882m22.85 94.379v-17.385m0-93.882v17.385" stroke="#000" stroke-width="8" stroke-linecap="round" stroke-linejoin="round"/><path d="M93.02 132.261a8.941 8.941 0 0 0-8.942-8.941 8.941 8.941 0 0 0-8.94 8.941 8.941 8.941 0 1 0 17.882 0Zm0-73.516a8.941 8.941 0 1 1-17.883 0 8.941 8.941 0 0 1 17.883 0Zm22.849 73.516a8.941 8.941 0 0 0-17.882 0 8.941 8.941 0 1 0 17.882 0Zm0-73.516a8.941 8.941 0 1 1-17.882 0 8.941 8.941 0 0 1 17.882 0Z" fill="#000"/><path d="M38.876 84.078h17.882m95.373 0h-17.883m-94.378 22.85h17.385m93.882 0h-17.385" stroke="#000" stroke-width="8" stroke-linecap="round" stroke-linejoin="round"/><path d="M58.745 93.02a8.941 8.941 0 1 0 0-17.883 8.941 8.941 0 0 0 0 17.883Zm73.516 0a8.941 8.941 0 0 1 0-17.883 8.941 8.941 0 1 1 0 17.883Zm-73.516 22.849a8.941 8.941 0 1 0 0-17.882 8.941 8.941 0 0 0 0 17.882Zm73.516 0a8.941 8.941 0 1 1 0-17.882 8.941 8.941 0 1 1 0 17.882Z" fill="#000"/></svg>

<svg width="192" height="192" viewBox="0 0 192 192" fill="none" xmlns="http://www.w3.org/2000/svg"><path d="M147.66 38.876H45.333a5.96 5.96 0 0 0-5.96 5.96v102.327a5.961 5.961 0 0 0 5.96 5.961H147.66a5.961 5.961 0 0 0 5.961-5.961V44.837a5.961 5.961 0 0 0-5.961-5.961Z" stroke="#000" stroke-width="8"/><path d="M105.935 79.608h-19.87a5.96 5.96 0 0 0-5.96 5.96v19.87a5.961 5.961 0 0 0 5.96 5.961h19.87a5.96 5.96 0 0 0 5.96-5.961v-19.87a5.96 5.96 0 0 0-5.96-5.96Z" stroke="#000" stroke-width="8"/><path d="M56.261 20v17.882M56.261 153.124V172M109.908 20v17.882M109.908 153.124V172M83.085 20v17.882M83.085 153.124V172M136.732 20v17.882M136.732 154.118V172M172 56.261h-17.882M38.876 56.261H20M172 109.909h-17.882M38.876 109.909H20M172 83.085h-17.882M38.876 83.085H20M172 136.732h-17.882M37.882 136.732H20M84.078 152.131v-17.883M84.078 38.876v17.882M106.928 151.137v-17.385M106.928 39.87v17.385" stroke="#000" stroke-width="8" stroke-linecap="round" stroke-linejoin="round"/><path d="M93.02 132.261a8.941 8.941 0 0 0-8.942-8.941 8.941 8.941 0 0 0-8.94 8.941 8.941 8.941 0 1 0 17.882 0ZM93.02 58.745a8.941 8.941 0 1 1-17.883 0 8.941 8.941 0 0 1 17.883 0ZM115.869 132.261a8.941 8.941 0 0 0-17.882 0 8.941 8.941 0 1 0 17.882 0ZM115.869 58.745a8.941 8.941 0 1 1-17.882 0 8.941 8.941 0 0 1 17.882 0Z" fill="#000"/><path d="M38.876 84.078h17.882M152.131 84.078h-17.883M39.87 106.928h17.385M151.137 106.928h-17.385" stroke="#000" stroke-width="8" stroke-linecap="round" stroke-linejoin="round"/><path d="M58.745 93.02a8.941 8.941 0 1 0 0-17.883 8.941 8.941 0 0 0 0 17.883ZM132.261 93.02a8.941 8.941 0 0 1 0-17.883 8.941 8.941 0 1 1 0 17.883ZM58.745 115.869a8.941 8.941 0 1 0 0-17.882 8.941 8.941 0 0 0 0 17.882ZM132.261 115.869a8.941 8.941 0 1 1 0-17.882 8.941 8.941 0 1 1 0 17.882Z" fill="#000"/></svg>
